gama.ui.shared/icons_svg/dark/views/tabs/view.browser.svg

<svg height="24.75" viewBox="-891.358 -2973.769 24.75 24.75" width="24.75" xmlns="http://www.w3.org/2000/svg"><path d="m-876.6494-2959.838v-3.111h-4.6667v3.111zm0 .7778h-4.6667v3.1112h4.6667zm-8.5556-.7778h3.1111v-3.111h-3.1111zm0 .7778v1.9444c0 .6456.5211 1.1668 1.1667 1.1668h1.9444v-3.1112zm12.4445-.7778v-3.111h-3.1111v3.111zm0 .7778h-3.1111v3.1112h1.9444c.6456 0 1.1667-.5212 1.1667-1.1668zm-3.8889-4.6668v-3.111h-4.6667v3.111zm-8.5556 0h3.1111v-3.111h-1.9444c-.6456 0-1.1667.521-1.1667 1.1667zm12.4445 0v-1.9443c0-.6457-.5211-1.1667-1.1667-1.1667h-1.9444v3.111zm-11.2778-3.8888h10.1111c1.0733 0 1.9444.8711 1.9444 1.9445v8.5555c0 1.0734-.8711 1.9445-1.9444 1.9445h-10.1111c-1.0733 0-1.9445-.8711-1.9445-1.9445v-8.5555c0-1.0734.8712-1.9445 1.9445-1.9445z" fill="#c0e0ff"/></svg>

<?xml version="1.0" encoding="UTF-8" standalone="no"?>
<!DOCTYPE svg PUBLIC "-//W3C//DTD SVG 1.1//EN" "http://www.w3.org/Graphics/SVG/1.1/DTD/svg11.dtd">
<svg xmlns="http://www.w3.org/2000/svg" xmlns:dc="http://purl.org/dc/elements/1.1/" version="1.1" xmlns:xl="http://www.w3.org/1999/xlink" viewBox="-891.3578 -2973.7685 24.75 24.75" width="24.75" height="24.75">
  <defs/>
  <g id="SOURCES" fill="none" stroke="none" stroke-dasharray="none" fill-opacity="1" stroke-opacity="1">
    <title>SOURCES</title>
    <g id="SOURCES_Dark">
      <title>Dark</title>
      <g id="Group_12675">
        <g id="Graphic_11045">
          <path d="M -876.6494 -2959.838 L -876.6494 -2962.949 L -881.3161 -2962.949 L -881.3161 -2959.838 Z M -876.6494 -2959.0602 L -881.3161 -2959.0602 L -881.3161 -2955.949 L -876.6494 -2955.949 Z M -885.205 -2959.838 L -882.0939 -2959.838 L -882.0939 -2962.949 L -885.205 -2962.949 Z M -885.205 -2959.0602 L -885.205 -2957.1158 C -885.205 -2956.4702 -884.6839 -2955.949 -884.0383 -2955.949 L -882.0939 -2955.949 L -882.0939 -2959.0602 Z M -872.7605 -2959.838 L -872.7605 -2962.949 L -875.8716 -2962.949 L -875.8716 -2959.838 Z M -872.7605 -2959.0602 L -875.8716 -2959.0602 L -875.8716 -2955.949 L -873.9272 -2955.949 C -873.2816 -2955.949 -872.7605 -2956.4702 -872.7605 -2957.1158 Z M -876.6494 -2963.727 L -876.6494 -2966.838 L -881.3161 -2966.838 L -881.3161 -2963.727 Z M -885.205 -2963.727 L -882.0939 -2963.727 L -882.0939 -2966.838 L -884.0383 -2966.838 C -884.6839 -2966.838 -885.205 -2966.317 -885.205 -2965.6713 Z M -872.7605 -2963.727 L -872.7605 -2965.6713 C -872.7605 -2966.317 -873.2816 -2966.838 -873.9272 -2966.838 L -875.8716 -2966.838 L -875.8716 -2963.727 Z M -884.0383 -2967.6158 L -873.9272 -2967.6158 C -872.8539 -2967.6158 -871.9828 -2966.7447 -871.9828 -2965.6713 L -871.9828 -2957.1158 C -871.9828 -2956.0424 -872.8539 -2955.1713 -873.9272 -2955.1713 L -884.0383 -2955.1713 C -885.1116 -2955.1713 -885.9828 -2956.0424 -885.9828 -2957.1158 L -885.9828 -2965.6713 C -885.9828 -2966.7447 -885.1116 -2967.6158 -884.0383 -2967.6158 Z" fill="#c0e0ff"/>
        </g>
        <g id="Graphic_12673"/>
      </g>
    </g>
  </g>
</svg>
